;FLAVOR:Marlin
;TIME:965
;Filament used: 0.701263m
;Layer height: 0.2
;MINX:-21.2
;MINY:-21.2
;MINZ:0.2
;MAXX:21.2
;MAXY:21.2
;MAXZ:10.2
;Generated with Cura_SteamEngine master
M82 ;absolute extrusion mode
M104 S0
M140 S70
G28
G0 Z10 F1800
G30 Z-0.3
G0 Z10 F1800
M109 S245
G92 E0
G92 E0
G1 F2100 E-5
;LAYER_COUNT:50
;LAYER:0
M107
G1 F3000 Z0.4
G0 F6000 X9.293 Y-21.2 Z0.4
;TYPE:SKIRT
G1 F3000 Z0.2
G1 F2100 E0
G1 F900 X10.151 Y-21.189 E0.03425
G1 X11.096 Y-21.135 E0.07203
G1 X12.033 Y-21.002 E0.1098
G1 X12.956 Y-20.791 E0.14759
G1 X13.857 Y-20.502 E0.18535
G1 X14.73 Y-20.138 E0.2231
G1 X15.57 Y-19.701 E0.2609
G1 X16.37 Y-19.196 E0.29865
G1 X17.125 Y-18.624 E0.33646
G1 X17.828 Y-17.991 E0.37422
G1 X18.475 Y-17.301 E0.41197
G1 X19.062 Y-16.559 E0.44973
G1 X19.585 Y-15.77 E0.48751
G1 X20.038 Y-14.939 E0.52529
G1 X20.42 Y-14.073 E0.56306
G1 X20.728 Y-13.178 E0.60084
G1 X20.958 Y-12.26 E0.63861
G1 X21.111 Y-11.326 E0.67639
G1 X21.187 Y-10.305 E0.71725
G1 X21.196 Y-9.985 E0.73003
G1 X21.2 Y-9.67 E0.7426
G1 X21.199 Y9.403 E1.50385
G1 X21.19 Y10.13 E1.53286
G1 X21.138 Y11.075 E1.57064
G1 X21.007 Y12.012 E1.6084
G1 X20.797 Y12.935 E1.64618
G1 X20.51 Y13.836 E1.68392
G1 X20.148 Y14.711 E1.72172
G1 X19.713 Y15.551 E1.75947
G1 X19.209 Y16.352 E1.79724
G1 X18.639 Y17.108 E1.83503
G1 X18.008 Y17.812 E1.87276
G1 X17.319 Y18.461 E1.91054
G1 X16.577 Y19.05 E1.94835
G1 X15.789 Y19.573 E1.9861
G1 X14.96 Y20.029 E2.02386
G1 X14.094 Y20.412 E2.06166
G1 X13.2 Y20.721 E2.09941
G1 X12.283 Y20.954 E2.13717
G1 X11.349 Y21.108 E2.17495
G1 X10.305 Y21.187 E2.21674
G1 X9.984 Y21.196 E2.22956
G1 X9.67 Y21.2 E2.24209
G1 X-9.437 Y21.199 E3.00469
G1 X-10.135 Y21.19 E3.03255
G1 X-11.08 Y21.138 E3.07033
G1 X-12.017 Y21.006 E3.10809
G1 X-12.94 Y20.796 E3.14587
G1 X-13.842 Y20.508 E3.18367
G1 X-14.716 Y20.146 E3.22142
G1 X-15.556 Y19.71 E3.2592
G1 X-16.357 Y19.206 E3.29697
G1 X-17.112 Y18.636 E3.33472
G1 X-17.817 Y18.004 E3.37251
G1 X-18.465 Y17.314 E3.41029
G1 X-19.053 Y16.573 E3.44805
G1 X-19.576 Y15.784 E3.48583
G1 X-20.031 Y14.954 E3.52361
G1 X-20.414 Y14.089 E3.56136
G1 X-20.723 Y13.194 E3.59916
G1 X-20.955 Y12.277 E3.63691
G1 X-21.109 Y11.343 E3.67469
G1 X-21.187 Y10.294 E3.71667
G1 X-21.196 Y9.961 E3.72997
G1 X-21.2 Y9.658 E3.74206
G1 X-21.199 Y-9.478 E4.50582
G1 X-21.19 Y-10.143 E4.53237
G1 X-21.137 Y-11.087 E4.5701
G1 X-21.005 Y-12.025 E4.60791
G1 X-20.794 Y-12.947 E4.64566
G1 X-20.506 Y-13.848 E4.68341
G1 X-20.143 Y-14.722 E4.72118
G1 X-19.707 Y-15.563 E4.75899
G1 X-19.202 Y-16.363 E4.79675
G1 X-18.631 Y-17.118 E4.83453
G1 X-17.999 Y-17.822 E4.87229
G1 X-17.309 Y-18.47 E4.91007
G1 X-16.567 Y-19.057 E4.94783
G1 X-15.778 Y-19.58 E4.98562
G1 X-14.948 Y-20.034 E5.02337
G1 X-14.082 Y-20.417 E5.06117
G1 X-13.188 Y-20.725 E5.09891
G1 X-12.27 Y-20.957 E5.1367
G1 X-11.336 Y-21.11 E5.17447
G1 X-10.305 Y-21.187 E5.21574
G1 X-9.984 Y-21.196 E5.22855
G1 X-9.67 Y-21.2 E5.24109
G1 X9.293 Y-21.2 E5.99794
G0 F6000 X9.293 Y-20.72
G1 F900 X10.145 Y-20.709 E6.03195
G1 X11.069 Y-20.656 E6.06889
G1 X11.985 Y-20.523 E6.10583
G1 X12.887 Y-20.312 E6.14281
G1 X13.766 Y-20.023 E6.17974
G1 X14.618 Y-19.66 E6.2167
G1 X15.435 Y-19.225 E6.25364
G1 X16.212 Y-18.721 E6.29061
G1 X16.942 Y-18.151 E6.32757
G1 X17.62 Y-17.521 E6.36451
G1 X18.241 Y-16.835 E6.40144
G1 X18.801 Y-16.097 E6.43842
G1 X19.295 Y-15.314 E6.47537
G1 X19.72 Y-14.492 E6.5123
G1 X20.072 Y-13.635 E6.54928
G1 X20.349 Y-12.752 E6.58622
G1 X20.549 Y-11.848 E6.62317
G1 X20.67 Y-10.93 E6.66012
G1 X20.707 Y-10.291 E6.68567
G1 X20.716 Y-9.971 E6.69845
G1 X20.72 Y-9.67 E6.71046
G1 X20.719 Y9.397 E7.47147
G1 X20.71 Y10.124 E7.50049
G1 X20.659 Y11.048 E7.53742
G1 X20.528 Y11.965 E7.57439
G1 X20.318 Y12.866 E7.61132
G1 X20.032 Y13.747 E7.64829
G1 X19.67 Y14.599 E7.68523
G1 X19.236 Y15.417 E7.72219
G1 X18.734 Y16.195 E7.75915
G1 X18.166 Y16.926 E7.79609
G1 X17.537 Y17.605 E7.83304
G1 X16.852 Y18.228 E7.86999
G1 X16.115 Y18.789 E7.90696
G1 X15.333 Y19.285 E7.94392
G1 X14.511 Y19.711 E7.98087
G1 X13.656 Y20.065 E8.01781
G1 X12.773 Y20.344 E8.05477
G1 X11.869 Y20.545 E8.09173
G1 X10.952 Y20.668 E8.12865
G1 X10.291 Y20.707 E8.15508
G1 X9.97 Y20.716 E8.1679
G1 X9.67 Y20.72 E8.17987
G1 X-9.431 Y20.719 E8.94224
G1 X-10.129 Y20.71 E8.9701
G1 X-11.054 Y20.658 E9.00707
G1 X-11.97 Y20.527 E9.04401
G1 X-12.872 Y20.317 E9.08097
G1 X-13.752 Y20.03 E9.11791
G1 X-14.604 Y19.668 E9.15486
G1 X-15.422 Y19.233 E9.19184
G1 X-16.199 Y18.73 E9.22878
G1 X-16.93 Y18.162 E9.26573
G1 X-17.609 Y17.533 E9.30267
G1 X-18.232 Y16.847 E9.33966
G1 X-18.792 Y16.111 E9.37657
G1 X-19.288 Y15.329 E9.41353
G1 X-19.714 Y14.506 E9.45051
G1 X-20.067 Y13.651 E9.48743
G1 X-20.345 Y12.768 E9.52438
G1 X-20.546 Y11.864 E9.56134
G1 X-20.668 Y10.946 E9.5983
G1 X-20.707 Y10.281 E9.62489
G1 X-20.716 Y9.948 E9.63819
G1 X-20.72 Y9.658 E9.64976
G1 X-20.719 Y-9.471 E10.41324
G1 X-20.71 Y-10.136 E10.43979
G1 X-20.658 Y-11.06 E10.47672
G1 X-20.525 Y-11.977 E10.51371
G1 X-20.315 Y-12.878 E10.55063
G1 X-20.027 Y-13.758 E10.58759
G1 X-19.665 Y-14.61 E10.62453
G1 X-19.23 Y-15.428 E10.66151
G1 X-18.726 Y-16.205 E10.69848
G1 X-18.158 Y-16.935 E10.73539
G1 X-17.528 Y-17.614 E10.77236
G1 X-16.842 Y-18.236 E10.80932
G1 X-16.105 Y-18.796 E10.84626
G1 X-15.323 Y-19.291 E10.8832
G1 X-14.5 Y-19.716 E10.92017
G1 X-13.644 Y-20.069 E10.95713
G1 X-12.761 Y-20.347 E10.99407
G1 X-11.857 Y-20.547 E11.03103
G1 X-10.939 Y-20.669 E11.06799
G1 X-10.291 Y-20.707 E11.0939
G1 X-9.97 Y-20.716 E11.10671
G1 X-9.67 Y-20.72 E11.11869
G1 X9.293 Y-20.72 E11.87554
G0 F6000 X9.293 Y-20.24
G1 F900 X10.138 Y-20.229 E11.90927
G1 X11.041 Y-20.176 E11.94537
G1 X11.936 Y-20.044 E11.98148
G1 X12.816 Y-19.833 E12.0176
G1 X13.674 Y-19.545 E12.05372
G1 X14.503 Y-19.182 E12.08984
G1 X15.297 Y-18.748 E12.12596
G1 X16.049 Y-18.245 E12.16207
G1 X16.755 Y-17.678 E12.19821
G1 X17.407 Y-17.051 E12.23431
G1 X18.001 Y-16.369 E12.27041
G1 X18.533 Y-15.637 E12.30652
G1 X18.998 Y-14.861 E12.34263
G1 X19.393 Y-14.047 E12.37874
G1 X19.715 Y-13.201 E12.41487
G1 X19.96 Y-12.33 E12.45098
G1 X20.128 Y-11.441 E12.48709
G1 X20.227 Y-10.278 E12.53368
G1 X20.236 Y-9.958 E12.54646
G1 X20.24 Y-9.67 E12.55795
G1 X20.239 Y9.391 E13.31872
G1 X20.23 Y10.118 E13.34774
G1 X20.179 Y11.021 E13.38383
G1 X20.048 Y11.917 E13.41998
G1 X19.839 Y12.797 E13.45608
G1 X19.553 Y13.655 E13.49217
G1 X19.192 Y14.485 E13.5283
G1 X18.759 Y15.28 E13.56443
G1 X18.258 Y16.033 E13.60053
G1 X17.693 Y16.74 E13.63665
G1 X17.067 Y17.393 E13.67275
G1 X16.386 Y17.989 E13.70887
G1 X15.655 Y18.522 E13.74498
G1 X14.879 Y18.989 E13.78113
G1 X14.066 Y19.385 E13.81722
G1 X13.221 Y19.708 E13.85333
G1 X12.35 Y19.956 E13.88947
G1 X11.461 Y20.125 E13.92559
G1 X10.278 Y20.227 E13.97298
G1 X9.957 Y20.236 E13.9858
G1 X9.67 Y20.24 E13.99725
G1 X-9.425 Y20.239 E14.75938
G1 X-10.123 Y20.23 E14.78724
G1 X-11.026 Y20.179 E14.82334
G1 X-11.922 Y20.047 E14.85948
G1 X-12.802 Y19.838 E14.89558
G1 X-13.66 Y19.551 E14.93169
G1 X-14.49 Y19.19 E14.96782
G1 X-15.284 Y18.757 E15.00391
G1 X-16.038 Y18.255 E15.04007
G1 X-16.744 Y17.689 E15.07618
G1 X-17.397 Y17.063 E15.11229
G1 X-17.992 Y16.382 E15.14838
G1 X-18.525 Y15.65 E15.18452
G1 X-18.991 Y14.875 E15.22061
G1 X-19.387 Y14.061 E15.25674
G1 X-19.71 Y13.216 E15.29285
G1 X-19.957 Y12.345 E15.32898
G1 X-20.126 Y11.456 E15.3651
G1 X-20.227 Y10.268 E15.41269
G1 X-20.236 Y9.935 E15.42598
G1 X-20.24 Y9.658 E15.43704
G1 X-20.239 Y-9.465 E16.20028
G1 X-20.23 Y-10.13 E16.22682
G1 X-20.178 Y-11.033 E16.26292
G1 X-20.046 Y-11.928 E16.29903
G1 X-19.836 Y-12.808 E16.33514
G1 X-19.549 Y-13.666 E16.37125
G1 X-19.187 Y-14.496 E16.40739
G1 X-18.753 Y-15.29 E16.4435
G1 X-18.251 Y-16.043 E16.47963
G1 X-17.685 Y-16.748 E16.51571
G1 X-17.058 Y-17.401 E16.55184
G1 X-16.376 Y-17.996 E16.58796
G1 X-15.645 Y-18.529 E16.62407
G1 X-14.869 Y-18.994 E16.66018
G1 X-14.055 Y-19.39 E16.69631
G1 X-13.209 Y-19.712 E16.73244
G1 X-12.339 Y-19.958 E16.76852
G1 X-11.45 Y-20.127 E16.80464
G1 X-10.278 Y-20.227 E16.85159
G1 X-9.957 Y-20.236 E16.8644
G1 X-9.67 Y-20.24 E16.87586
G1 X9.293 Y-20.24 E17.63271
G1 F2100 E12.63271
G1 F3000 Z0.4
;MESH:cube.stl
G0 F6000 X-8.8 Y8.8 Z0.4
;TYPE:WALL-INNER
G1 F3000 Z0.2
G1 F2100 E17.63271
G1 F900 X-8.8 Y-8.8 E18.33517
G1 X8.8 Y-8.8 E19.03762
G1 X8.8 Y8.8 E19.74008
G1 X-8.8 Y8.8 E20.44253
G0 F6000 X-9.28 Y9.28
G1 F900 X-9.28 Y-9.28 E21.1833
G1 X9.28 Y-9.28 E21.92407
G1 X9.28 Y9.28 E22.66484
G1 X-9.28 Y9.28 E23.40561
G0 F6000 X-9.76 Y9.76
;TYPE:WALL-OUTER
G1 F900 X-9.76 Y-9.76 E24.18469
G1 X9.76 Y-9.76 E24.96378
G1 X9.76 Y9.76 E25.74286
G1 X-9.76 Y9.76 E26.52195
G0 F6000 X-8.33 Y8.33
;TYPE:SKIN
G1 F900 X-8.33 Y-8.33 E27.18689
G1 X8.33 Y-8.33 E27.85182
G1 X8.33 Y8.33 E28.51676
G1 X-8.33 Y8.33 E29.1817
G0 F6000 X-8.129 Y7.483
G1 F900 X-7.483 Y8.129 E29.21816
G0 F6000 X-6.804 Y8.129
G1 F900 X-8.129 Y6.804 E29.29295
G0 F6000 X-8.129 Y6.125
G1 F900 X-6.125 Y8.129 E29.40606
G0 F6000 X-5.446 Y8.129
G1 F900 X-8.129 Y5.446 E29.5575
G0 F6000 X-8.129 Y4.768
G1 F900 X-4.768 Y8.129 E29.74721
G0 F6000 X-4.089 Y8.129
G1 F900 X-8.129 Y4.089 E29.97525
G0 F6000 X-8.129 Y3.41
G1 F900 X-3.41 Y8.129 E30.24161
G0 F6000 X-2.731 Y8.129
G1 F900 X-8.129 Y2.731 E30.54629
G0 F6000 X-8.129 Y2.052
G1 F900 X-2.052 Y8.129 E30.88931
G0 F6000 X-1.373 Y8.129
G1 F900 X-8.129 Y1.373 E31.27064
G0 F6000 X-8.129 Y0.695
G1 F900 X-.695 Y8.129 E31.69025
G0 F6000 X-0.016 Y8.129
G1 F900 X-8.129 Y0.016 E32.14818
G0 F6000 X-8.129 Y-.662
G1 F900 X0.662 Y8.129 E32.64439
G0 F6000 X1.341 Y8.129
G1 F900 X-8.129 Y-1.341 E33.17891
G0 F6000 X-8.129 Y-2.02
G1 F900 X2.02 Y8.129 E33.75177
G0 F6000 X2.699 Y8.129
G1 F900 X-8.129 Y-2.699 E34.36295
G0 F6000 X-8.129 Y-3.377
G1 F900 X3.377 Y8.129 E35.01239
G0 F6000 X4.056 Y8.129
G1 F900 X-8.129 Y-4.056 E35.70017
G0 F6000 X-8.129 Y-4.735
G1 F900 X4.735 Y8.129 E36.42627
G0 F6000 X5.414 Y8.129
G1 F900 X-8.129 Y-5.414 E37.19069
G0 F6000 X-8.129 Y-6.093
G1 F900 X6.093 Y8.129 E37.99345
G0 F6000 X6.771 Y8.129
G1 F900 X-8.129 Y-6.771 E38.83447
G0 F6000 X-8.129 Y-7.45
G1 F900 X7.45 Y8.129 E39.71381
G0 F6000 X8.129 Y8.129
G1 F900 X-8.129 Y-8.129 E40.63148
G0 F6000 X-7.45 Y-8.129
G1 F900 X8.129 Y7.45 E41.51083
G0 F6000 X8.129 Y6.771
G1 F900 X-6.771 Y-8.129 E42.35185
G0 F6000 X-6.093 Y-8.129
G1 F900 X8.129 Y6.093 E43.1546
G0 F6000 X8.129 Y5.414
G1 F900 X-5.414 Y-8.129 E43.91903
G0 F6000 X-4.735 Y-8.129
G1 F900 X8.129 Y4.735 E44.64513
G0 F6000 X8.129 Y4.056
G1 F900 X-4.056 Y-8.129 E45.3329
G0 F6000 X-3.377 Y-8.129
G1 F900 X8.129 Y3.377 E45.98235
G0 F6000 X8.129 Y2.699
G1 F900 X-2.699 Y-8.129 E46.59353
G0 F6000 X-2.02 Y-8.129
G1 F900 X8.129 Y2.02 E47.16638
G0 F6000 X8.129 Y1.341
G1 F900 X-1.341 Y-8.129 E47.70091
G0 F6000 X-.662 Y-8.129
G1 F900 X8.129 Y0.662 E48.19711
G0 F6000 X8.129 Y-0.016
G1 F900 X0.016 Y-8.129 E48.65504
G0 F6000 X0.695 Y-8.129
G1 F900 X8.129 Y-.695 E49.07465
G0 F6000 X8.129 Y-1.373
G1 F900 X1.373 Y-8.129 E49.45599
G0 F6000 X2.052 Y-8.129
G1 F900 X8.129 Y-2.052 E49.799
G0 F6000 X8.129 Y-2.731
G1 F900 X2.731 Y-8.129 E50.10369
G0 F6000 X3.41 Y-8.129
G1 F900 X8.129 Y-3.41 E50.37005
G0 F6000 X8.129 Y-4.089
G1 F900 X4.089 Y-8.129 E50.59808
G0 F6000 X4.768 Y-8.129
G1 F900 X8.129 Y-4.768 E50.78779
G0 F6000 X8.129 Y-5.446
G1 F900 X5.446 Y-8.129 E50.93923
G0 F6000 X6.125 Y-8.129
G1 F900 X8.129 Y-6.125 E51.05235
G0 F6000 X8.129 Y-6.804
G1 F900 X6.804 Y-8.129 E51.12714
G0 F6000 X7.483 Y-8.129
M104 S245
G1 F900 X8.129 Y-7.483 E51.1636
G1 F2100 E46.1636
G1 F3000 Z0.4
;MESH:NONMESH
G0 F6000 X-9 Y9 Z0.4
;TIME_ELAPSED:92.818183
;LAYER:1
M106 S85
;TYPE:WALL-INNER
;MESH:cube.stl
G1 F3000 Z0.4
G1 F2100 E51.1636
G1 F1200 X-9 Y-9 E51.76228
G1 X9 Y-9 E52.36096
G1 X9 Y9 E52.95965
G1 X-9 Y9 E53.55833
G0 F7500 X-9.4 Y9.4
G1 F1200 X-9.4 Y-9.4 E54.18362
G1 X9.4 Y-9.4 E54.80891
G1 X9.4 Y9.4 E55.4342
G1 X-9.4 Y9.4 E56.05949
G0 F7500 X-9.8 Y9.8
;TYPE:WALL-OUTER
G1 F1200 X-9.8 Y-9.8 E56.71139
G1 X9.8 Y-9.8 E57.36329
G1 X9.8 Y9.8 E58.01519
G1 X-9.8 Y9.8 E58.66709
G0 F7500 X-8.61 Y8.61
;TYPE:SKIN
G1 F1200 X-8.61 Y-8.61 E59.23982
G1 X8.61 Y-8.61 E59.81256
G1 X8.61 Y8.61 E60.3853
G1 X-8.61 Y8.61 E60.95804
G1 F2100 E55.95804
G1 F3000 Z0.6
G0 F7500 X-8.449 Y-7.954 Z0.6
G1 F3000 Z0.4
G1 F2100 E60.95804
G1 F1200 X-7.954 Y-8.449 E60.98133
G0 F7500 X-7.389 Y-8.449
G1 F1200 X-8.449 Y-7.389 E61.03119
G0 F7500 X-8.449 Y-6.823
G1 F1200 X-6.823 Y-8.449 E61.10767
G0 F7500 X-6.257 Y-8.449
G1 F1200 X-8.449 Y-6.257 E61.21077
G0 F7500 X-8.449 Y-5.692
G1 F1200 X-5.692 Y-8.449 E61.34045
G0 F7500 X-5.126 Y-8.449
G1 F1200 X-8.449 Y-5.126 E61.49676
G0 F7500 X-8.449 Y-4.56
G1 F1200 X-4.56 Y-8.449 E61.67968
G0 F7500 X-3.995 Y-8.449
G1 F1200 X-8.449 Y-3.995 E61.88919
G0 F7500 X-8.449 Y-3.429
G1 F1200 X-3.429 Y-8.449 E62.12531
G0 F7500 X-2.863 Y-8.449
G1 F1200 X-8.449 Y-2.863 E62.38806
G0 F7500 X-8.449 Y-2.298
G1 F1200 X-2.298 Y-8.449 E62.67738
G0 F7500 X-1.732 Y-8.449
G1 F1200 X-8.449 Y-1.732 E62.99333
G0 F7500 X-8.449 Y-1.166
G1 F1200 X-1.166 Y-8.449 E63.3359
G0 F7500 X-.601 Y-8.449
G1 F1200 X-8.449 Y-.601 E63.70505
G0 F7500 X-8.449 Y-0.035
G1 F1200 X-0.035 Y-8.449 E64.10082
G0 F7500 X0.53 Y-8.449
G1 F1200 X-8.449 Y0.53 E64.52316
G0 F7500 X-8.449 Y1.096
G1 F1200 X1.096 Y-8.449 E64.97213
G0 F7500 X1.661 Y-8.449
G1 F1200 X-8.449 Y1.661 E65.44767
G0 F7500 X-8.449 Y2.227
G1 F1200 X2.227 Y-8.449 E65.94984
G0 F7500 X2.793 Y-8.449
G1 F1200 X-8.449 Y2.793 E66.47863
G0 F7500 X-8.449 Y3.358
G1 F1200 X3.358 Y-8.449 E67.03399
G0 F7500 X3.924 Y-8.449
G1 F1200 X-8.449 Y3.924 E67.61598
G0 F7500 X-8.449 Y4.49
G1 F1200 X4.49 Y-8.449 E68.22459
G0 F7500 X5.055 Y-8.449
G1 F1200 X-8.449 Y5.055 E68.85978
G0 F7500 X-8.449 Y5.621
G1 F1200 X5.621 Y-8.449 E69.52159
G0 F7500 X6.187 Y-8.449
G1 F1200 X-8.449 Y6.187 E70.21002
G0 F7500 X-8.449 Y6.752
G1 F1200 X6.752 Y-8.449 E70.92503
G0 F7500 X7.318 Y-8.449
G1 F1200 X-8.449 Y7.318 E71.66666
G0 F7500 X-8.449 Y7.884
G1 F1200 X7.884 Y-8.449 E72.43491
G0 F7500 X8.449 Y-8.449
G1 F1200 X-8.449 Y8.449 E73.22974
G0 F7500 X-7.884 Y8.449
G1 F1200 X8.449 Y-7.884 E73.998
G0 F7500 X8.449 Y-7.318
G1 F1200 X-7.318 Y8.449 E74.73963
G0 F7500 X-6.752 Y8.449
G1 F1200 X8.449 Y-6.752 E75.45464
G0 F7500 X8.449 Y-6.187
G1 F1200 X-6.187 Y8.449 E76.14307
G0 F7500 X-5.621 Y8.449
G1 F1200 X8.449 Y-5.621 E76.80488
G0 F7500 X8.449 Y-5.055
G1 F1200 X-5.055 Y8.449 E77.44007
G0 F7500 X-4.49 Y8.449
G1 F1200 X8.449 Y-4.49 E78.04868
G0 F7500 X8.449 Y-3.924
G1 F1200 X-3.924 Y8.449 E78.63067
G0 F7500 X-3.358 Y8.449
G1 F1200 X8.449 Y-3.358 E79.18603
G0 F7500 X8.449 Y-2.793
G1 F1200 X-2.793 Y8.449 E79.71482
G0 F7500 X-2.227 Y8.449
G1 F1200 X8.449 Y-2.227 E80.21699
G0 F7500 X8.449 Y-1.661
G1 F1200 X-1.661 Y8.449 E80.69253
G0 F7500 X-1.096 Y8.449
G1 F1200 X8.449 Y-1.096 E81.1415
G0 F7500 X8.449 Y-.53
G1 F1200 X-.53 Y8.449 E81.56384
G0 F7500 X0.035 Y8.449
G1 F1200 X8.449 Y0.035 E81.95961
G0 F7500 X8.449 Y0.601
G1 F1200 X0.601 Y8.449 E82.32876
G0 F7500 X1.166 Y8.449
G1 F1200 X8.449 Y1.166 E82.67133
G0 F7500 X8.449 Y1.732
G1 F1200 X1.732 Y8.449 E82.98727
G0 F7500 X2.298 Y8.449
G1 F1200 X8.449 Y2.298 E83.2766
G0 F7500 X8.449 Y2.863
G1 F1200 X2.863 Y8.449 E83.53935
G0 F7500 X3.429 Y8.449
G1 F1200 X8.449 Y3.429 E83.77547
G0 F7500 X8.449 Y3.995
G1 F1200 X3.995 Y8.449 E83.98497
G0 F7500 X4.56 Y8.449
G1 F1200 X8.449 Y4.56 E84.1679
G0 F7500 X8.449 Y5.126
G1 F1200 X5.126 Y8.449 E84.3242
G0 F7500 X5.692 Y8.449
G1 F1200 X8.449 Y5.692 E84.45389
G0 F7500 X8.449 Y6.257
G1 F1200 X6.257 Y8.449 E84.55699
G0 F7500 X6.823 Y8.449
G1 F1200 X8.449 Y6.823 E84.63347
G0 F7500 X8.449 Y7.389
G1 F1200 X7.389 Y8.449 E84.68333
G0 F7500 X7.954 Y8.449
G1 F1200 X8.449 Y7.954 E84.70661
G1 F2100 E79.70661
G1 F3000 Z0.6
;MESH:NONMESH
G0 F7500 X-9 Y9 Z0.6
;TIME_ELAPSED:149.307364
;LAYER:2
M106 S170
;TYPE:WALL-INNER
;MESH:cube.stl
G1 F3000 Z0.6
G1 F2100 E84.70661
G1 F1500 X-9 Y-9 E85.3053
G1 X9 Y-9 E85.90398
G1 X9 Y9 E86.50266
G1 X-9 Y9 E87.10134
G0 F9000 X-9.4 Y9.4
G1 F1500 X-9.4 Y-9.4 E87.72664
G1 X9.4 Y-9.4 E88.35193
G1 X9.4 Y9.4 E88.97722
G1 X-9.4 Y9.4 E89.60251
G0 F9000 X-9.8 Y9.8
;TYPE:WALL-OUTER
G1 F1500 X-9.8 Y-9.8 E90.25441
G1 X9.8 Y-9.8 E90.9063
G1 X9.8 Y9.8 E91.5582
G1 X-9.8 Y9.8 E92.2101
G0 F9000 X-8.61 Y8.61
;TYPE:SKIN
